X:1
T:Parbar, LMD
T:Parbar, LMD
T:Lowell Mason, 1839
T:Public Domain Courtesy of the Cyber Hymnal™
C:Lowell Mason, 1839
Z:Public Domain
Z:Courtesy of the Cyber Hymnal™
%%score ( 1 2 ) ( 3 4 )
L:1/8
Q:1/4=135
M:3/2
K:C
V:1 treble 
V:2 treble 
V:3 bass 
V:4 bass 
V:1
 [EG]2 [CE]2 [DF]2 | [EG]6 [CE]2 [Ec]2 [CE]2 | ([CE]4 [B,D]2) [B,D]2 [B,D]2 [DF]2 | %3
 [CE]2 [EA]2 [DG]4 [D^F]4 | [DG]6 [EG]2 [CE]2 [DF]2 | [EG]6 [CE]2 [Ec]2 [CE]2 | %6
 ([CE]4 [B,D]2) [B,D]2 [B,D]2 [DF]2 | [CE]2 [EA]2 [DG]4 [D^F]4 | [DG]8 [Gd]4 | %9
 [Gd]3 [Gc] [GB]2 [Gd]2 [Gf]2 [GB]2 | [Gc]6 [Ec]2 [Fc]2 [Ec]2 | [Fc]6 [FA]2 [FA]2 [Fd]2 | %12
 ([Ec]4 [DB]4) G4 | [Fd]3 [Ec] [DB]2 [FA]2 [EG]2 [DF]2 | ([CE]4 [B,D]2) [EG]2 [EA]2 [EG]2 | %15
 [FA]2 [Fd]2 [Ec]4 [DB]4 | [Ec]8 |] %17
V:2
 x6 | x12 | x12 | x12 | x12 | x12 | x12 | x12 | x12 | x12 | x12 | x12 | x8 G4 | x12 | x12 | x12 | %16
 x8 |] %17
V:3
 [C,G,]2 [C,G,]2 [C,G,]2 | [C,G,]6 [C,G,]2 [C,G,]2 [C,G,]2 | G,6 G,2 G,2 [B,,G,]2 | %3
 [C,G,]2 [A,,C]2 [D,B,]4 [D,A,]4 | [G,,B,]6 [C,G,]2 [C,G,]2 [C,G,]2 | %5
 [C,G,]6 [C,G,]2 [C,G,]2 [C,G,]2 | G,6 G,2 G,2 [B,,G,]2 | [C,G,]2 [A,,C]2 [D,B,]4 [D,A,]4 | %8
 [G,,B,]8 [G,B,]4 | [G,B,]3 [G,A,] G,2 [G,B,]2 [G,D]2 [F,D]2 | [E,C]6 [C,G,]2 [F,A,]2 [C,G,]2 | %11
 [F,A,]6 [F,A,]2 [F,A,]2 [D,A,]2 | G,8 z4 | G,,12- | z6 [C,C]2 [A,,C]2 [C,C]2 | %15
 [F,A,]2 [D,A,]2 G,4 [G,,G,]4 | [C,G,]8 |] %17
V:4
 x6 | x12 | G,6 G,2 G,2 x2 | x12 | x12 | x12 | G,6 G,2 G,2 x2 | x12 | x12 | x4 G,2 x6 | x12 | x12 | %12
 G,8 x4 | x12 | G,,6 x6 | x4 G,4 x4 | x8 |] %17

